X:1
T: Mr. Menzies of Culdair's Strathspey
C:R. Mackintosh
R:Strathspey
Q: 128
K:D
M:4/4
L:1/16
|:A,2|DDD2 D4 DDD2 DF3|B,E3 E3D C3A, B,C3|DDD2 DF3 DEFG A2D2|B,G3 F3E FD3 D2A,2|
DDD2 D4 DDD2 DF3|B,E3 E3D C3A, B,C3|DDD2 DF3 DEFG A2D2|B,G3 F3E FD3 D2AB1/2c1/2|
df3 dA3 Bd3 AF3|GB3 FA3 E3D B,c3|df3 dA3 Bd3 AF3|Bg3 f3e ddd2 d4|
df3 ec3 Bd3 cA3|GB3 FA3 E3D B,E3|DDD2 DDD2 DEFG A2D2|B,G3 F3E DDD2 D2:|
